X: 552
T:Golden Slippers
M:2/4
L:1/16
R:2nd Change
K:D
|:de||"D"f2f2 (fe)de|"D"f2f2 "A7"f2de|"D"f2d2 g2f2|"A7"(f2e2) e2cd|
"A7"e2e2 (ed)cd|"A7"e2e2 e2cd|"A7"e2g2 f2e2|1"D"e2d2 d2:|2"D"e2d2 d4||
|:"D"A6d2|"D7"(f2e2) (d2=c2)|"G"B6d2|(g2f2)(e2d2)|"A7"c2>B2 c2d2|
[1e4c4|"D"d2>c2 d2e2|f2d2 B2_B2:|2(e4g4)|"A7"f2>g2 f2e2|"D"d6 z2||


